X: 382
T: Bir Hışmınan Geldi Geçti
C: Âşık Cevlânî
O: Turkey
F: http://compmusic.upf.edu/node/140
N: huseyni--turku--yuruksemai--bir_hisminan--kars
N: makam= huseyni
N: form= turku
N: usul= yuruksemai = 6/8
M: 6/8
L: 1/16
K: C _2/4B ^3/4f  
Q: 1/4=270
%%MIDI tuningsystem comma53
g2g4g2 g4  | g4 g2g2 g4  | .e4 .d2.c4.B2  | \
w:  Bir  hış mı nan   |  gel di  geç ti   |  peh  *  peh   | 
.B4 .A2.A6  | g2g2 e2e4e2  | e4 e2e2 e4  | 
w:  peh  *  peh    |  Ki zir_ *  oğ lu   |  Mus ta fa  bey   | 
(3gfge4(3gfg e4  | (3gfge8-e2  | e12  | \
w:  hey  *  *  *  hey  *  *  hey   |  hey    |   | 
g4 e2e2 e2e2  | e4 e2e2 e4  | 
w:  Hış mı  da ğı   |  del di  geç ti    | 
d2e2 d2e2 z4  | d2e2 d2e2 z4  | d2e2 d2e2 z4  | \
w:  A ğam  *  kim   |  pa şam  *  kim    |  Ni gâr  *  kim   | 
d2e2 d2e2 z4  | e2{=f}e2 {f}.d2e2 {f}e2{f}.d2  | 
w:  ha nım  *  kim    |  Kim  *  *  *  *  kim   | 
e2{=f}e2 {f}.d2(3e2{f}e2{f}e2{f}d2  | \
w:  kim  *  *  *  *  kim    | 
d2d4d4d2  | d4 c2e2 {=f}e2{f}d2  | c12  | \
w:  Ki zir_ oğ lu   |  Mus ta fa   |  bey    | 
c2B2 c2d2 c2B2  | 
w:  Bir  *  be yin_ oğ  | 
B8-B2A2  | A4 c2B2 B2A2  | A12  | d2d4d4d2  | \
w:  lu   |  zor  be yin_ oğ  |  lu    |  Ki zir_ oğ lu   | 
d4 c2e2 {=f}e2{f}d2  | c12  | c2B2 c2d2 c2B2  | 
w:  Mus ta fa   |  bey    |  Bir  *  be yin_ oğ  | 
B8-B2A2  | A4 c2B2 B2A2  | A12  | g2g4g2 g4  | \
w:  lu   |  zor  be yin_ oğ  |  lu    |  Bir  hış mı nan   | 
g4 g2g2 g4  | .e4 .d2.c4.B2  | 
w:  gel di  geç ti   |  peh  *  peh   | 
.B4 .A2.A6  | g2g2 e2e4e2  | e4 e2e2 e4  | \
w:  peh  *  peh    |  Ki zir_ *  oğ lu   |  Mus ta fa  bey   | 
(3gfge4(3gfg e4  | (3gfge8-e2  | 
w:  hey  *  *  *  hey  *  *  hey   |  hey    | 
e12  | g4 e2e2 e2e2  | e4 e2e2 e4  | d2e2 d2e2 z4  | \
w:   |  Hış mı  da ğı   |  del di  geç ti    |  A ğam  *  kim   | 
d2e2 d2e2 z4  | d2e2 d2e2 z4  | 
w:  pa şam  *  kim    |  Ni gâr  *  kim   | 
d2e2 d2e2 z4  | e2{=f}e2 {f}.d2e2 {f}e2{f}.d2  | \
w:  ha nım  *  kim    |  Kim  *  *  *  *  kim   | 
e2{=f}e2 {f}.d2(3e2{f}e2{f}e2{f}d2  | \
w:  kim  *  *  *  *  kim    | 
d2d4d4d2  | 
w:  Ki zir_ oğ lu   | 
d4 c2e2 {=f}e2{f}d2  | c12  | c2B2 c2d2 c2B2  | \
w:  Mus ta fa   |  bey    |  Bir  *  be yin_ oğ  | 
B8-B2A2  | A4 c2B2 B2A2  | A12  | 
w:  lu   |  zor  be yin_ oğ  |  lu    | 
d2d4d4d2  | d4 c2e2 {=f}e2{f}d2  | c12  | \
w:  Ki zir_ oğ lu   |  Mus ta fa   |  bey    | 
c2B2 c2d2 c2B2  | B8-B2A2  | A4 c2B2 B2A2  | 
w:  Bir  *  be yin_ oğ  |  lu   |  zor  be yin_ oğ  | 
A12  | |


